X: 21643
T: NELSE MOWBRAY'S REEL -- American Dance
R: reel
B: K\"ohler's Violin Repository, v.2, 1885 p.164 #3
F: http://www.archive.org/details/klersviolinrepos02rugg
Z: 2012 John Chambers <jc:trillian.mit.edu>
M: C|
L: 1/8
K: D
u(gfe) |\
dcdA BdAF | GeFd E(gfe) | dcdA BdAF | GBAF D(gfe) |\
dcdA BdAF | GEFD E(gfe) | dcdG BdAF | GBAF D2 :|
|: (A,/B,/C) |\
(3DDD (DF) EDFA | AFGB AFEC | (3DDD (DF) EDFA |[1 BGAF E2 :|[2 BGAF D2 |]
|: ((3ABc) |\
dAdf eAeg | fdfa gfga | gfed Bdgf | fdec dABc |\
dAdf eAeg | fdfa gfgb | afge fgeg | fedc d2 :|

%%sep 2 1 500

